X: 33393
T: Quick March
R: jig
M: 6/8
K: Gmajor
B2 B AGA|B2 G G2 B|d2 d Bdg|A2 A A2 d/c/|
B2 B AGA|B2 G G2 e|dcB A2 d|G2 G G2:|
d2 d d^cd|e2 e e2 g|d2 d dcB|A2 A A2 B/c/|
d2 d d^cd|e2 e e2 g|dcB AGF|G2 G G2:|

